wp-content/plugins/one-click-demo-import/assets/images/icons/star.svg

<svg width="11" height="10" viewBox="0 0 11 10" fill="none" xmlns="http://www.w3.org/2000/svg">
<path d="M5.23262 0.344145L4.017 2.9408L1.26782 3.3508C0.781568 3.4289 0.594549 4.05366 0.949886 4.42461L2.91359 6.43556L2.44604 9.2665C2.37123 9.77412 2.89488 10.1646 3.32503 9.93031L5.77498 8.58317L8.20622 9.93031C8.63637 10.1646 9.16002 9.77412 9.08521 9.2665L8.61766 6.43556L10.5814 4.42461C10.9367 4.05366 10.7497 3.4289 10.2634 3.3508L7.53295 2.9408L6.29863 0.344145C6.09291 -0.104901 5.45704 -0.124425 5.23262 0.344145Z" fill="white"/>
</svg>

<svg xmlns="http://www.w3.org/2000/svg" width="11" height="10" fill="none"><path fill="#fff" d="M5.233.344 4.017 2.941l-2.75.41c-.485.078-.672.703-.317 1.074l1.964 2.01-.468 2.832c-.075.507.449.898.879.663l2.45-1.347L8.206 9.93c.43.235.954-.156.88-.663l-.468-2.831 1.963-2.011c.356-.371.169-.996-.318-1.074l-2.73-.41L6.299.344a.585.585 0 0 0-1.066 0"/></svg>
